X:1
T:I’m Happy in Jesus Today
T:C. Wesley Hicks
T:I’m Happy in Jesus Today
T:Public Domain
T:Public Domain
C:C. Wesley Hicks
Z:Public Domain
%%score ( 1 2 ) ( 3 4 )
L:1/8
M:4/4
K:Ab
V:1 treble 
V:2 treble 
V:3 bass 
V:4 bass 
V:1
 [CE]2 | [Ec]2 [Ec]2 [Fd][Ec][DB][CA] | [DF]2 [FA]2 ([DF] [CE]2) [CE] | %3
w: 1.~I|have a friend whose life is|sweet to me, * I’m|
w: 2.~He|bore my bur- dens all up-|on the tree, * I’m|
w: 3.~His|grace to me grows sweet- er|ev- ery day, * I’m|
 [Ec] [Ec]2 [Ec] [Fd] [Ec]2 [CA] | [DB]6 E2 | [Ec]2 [Ec]2 [Fd][Ec][DB][CA] | %6
w: ha- ppy in Je- sus to-|day; His|doth keep me clean and make|
w: ha- ppy in Je- sus to-|day; His|cious life He gave to par-|
w: ha- ppy in Je- sus to-|day; It|to keep me from the e-|
 [DF]2 [FA]2 ([DF] [CE]2) [CE] | [Fd] [Fd]2 [Fd] [Ec] [Ec]2 [DB] | [CA]6 ||"^Refrain" [CA]2 | %10
w: me free, I’m * ha-|ppy in Je- sus to- day.|I’m|ha-|
w: don me, I’m * ha-|ppy in Je- sus to- day.|||
w: vil way, I’m * ha-|ppy in Je- sus to- day.|||
 [Fd] [Fd]2 [Fd] [Fd] [FA]2 [FB] | [Ec]6 [Ec]2 | [=DB] [DB]2 [DA] [DG] [DF]2 [Dc] | [EB]6 E2 | %14
w: ppy in Je- sus to- day,|I’m ha-|ppy in Je- sus to- day;|For Je-|
w: ||||
w: ||||
 [Ec] [Ec]2 [Ec] [Fd]2 [Ec]2 | [FB]2 [Fc]2 [Fd]2 [Gf]2 | [Ae] [Ae]2 [Ad] [Ec] [Ec]2 [DB] | [CA]6 |] %18
w: goes with me all the|way, I’m ha- ppy|in Je- sus to- day. *||
w: ||||
w: ||||
V:2
 x2 | x8 | x8 | x8 | x6 E2 | x8 | x8 | x8 | x6 || x2 | x8 | x8 | x8 | x6 E2 | x8 | x8 | x8 | x6 |] %18
w: ||||blood|||||||||sus|||||
w: ||||pre-||||||||||||||
w: ||||helps||||||||||||||
V:3
 [A,,A,]2 | [A,,A,]2 [A,,A,]2 [A,,A,][A,,A,][A,,A,][A,,A,] | [D,A,]2 [D,A,]2 [A,,A,]3 [A,,A,] | %3
w: ~|~ ~ ~ ~ ~ ~|~ ~ ~ ~|
 [A,,A,] [A,,A,]2 [A,,A,] [A,,A,] [A,,A,]2 [A,,A,] | [E,G,]6 [E,G,]2 | %5
w: ~ ~ ~ ~ ~ ~|~ ~|
 [A,,A,]2 [A,,A,]2 [A,,A,][A,,A,][A,,A,][A,,A,] | [D,A,]2 [D,A,]2 [A,,A,]3 A, | %7
w: ~ ~ ~ ~ ~ ~|~ ~ ~ ~|
 [D,A,] [D,A,]2 [D,A,] [E,A,] [E,A,]2 [E,G,] | [A,,A,]6 || A,2 | %10
w: ~ ~ ~ ~ ~ ~|~|~|
 [D,A,] [D,A,]2 [D,A,] [D,A,] [D,A,]2 [D,A,] | A,, C,2 E, A,2 [A,,A,]2 | %12
w: ~ ~ ~ so hap- py|to- day, ~ ~ ~|
 [B,,F,] [B,,F,]2 [B,,F,] [B,,B,] [B,,A,]2 [B,,A,] | E, E,2 D, C,2 [B,,G,]2 | %14
w: ~ ~ so hap- py to-|day, * * * *|
 [A,,A,] [A,,A,]2 [A,,A,] [A,,A,]2 [A,,A,]2 | [D,A,]2 [C,=A,]2 B,,D, [=D,=B,]2 | %16
w: ||
 [E,C] [E,C]2 [E,B,] [E,A,] [E,A,]2 [E,G,] | [A,,A,]6 |] %18
w: ||
V:4
 x2 | x8 | x8 | x8 | x8 | x8 | x7 A, | x8 | x6 || A,2 | x8 | A,6 x2 | x8 | G,6 x2 | x8 | %15
w: ||||||~|||~||~||||
 x4 =B,3 x | x8 | x6 |] %18
w: |||

